assets/images/avatars/user/custom-avatars/season-f1/gasoline-tangerine400.svg

<svg width="52" height="52" viewBox="0 0 52 52" fill="none" xmlns="http://www.w3.org/2000/svg">
<g clip-path="url(#clip0_26_81638)">
<rect width="52" height="52" fill="#FF7101"/>
<path d="M26 52C40.3594 52 52 40.3594 52 26C52 11.6406 40.3594 0 26 0C11.6406 0 0 11.6406 0 26C0 40.3594 11.6406 52 26 52Z" fill="#FF7101"/>
<path d="M25.9999 46.7669C37.4691 46.7669 46.7667 37.4693 46.7667 26.0002C46.7667 14.531 37.4691 5.2334 25.9999 5.2334C14.5308 5.2334 5.23315 14.531 5.23315 26.0002C5.23315 37.4693 14.5308 46.7669 25.9999 46.7669Z" fill="#FF7101" stroke="#002140" stroke-width="0.65" stroke-miterlimit="10"/>
<path d="M43.1292 28.0735V35.7606C43.1292 36.6155 42.6689 37.3562 42.0044 37.6954C41.7517 37.8269 41.4714 37.8996 41.1737 37.8996H40.3707C40.0627 37.8996 39.7719 37.8131 39.5123 37.6573C38.8616 37.2766 38.4152 36.4909 38.4152 35.6499V35.6187L38.4082 34.8538C38.4082 34.2862 38.211 33.9574 37.8441 33.5559L33.1473 28.423C32.7805 28.025 32.2821 27.7966 31.7629 27.7966H28.6305C28.4367 27.7966 28.2498 27.7654 28.0698 27.7066C27.6753 27.5785 27.3223 27.3155 27.0696 26.9486L25.5225 25.2423L25.6228 25.1523H41.9178L42.2639 24.9619L42.6827 25.7234C42.9423 26.0972 43.1292 27.6028 43.1292 28.0735Z" fill="#FFC68C"/>
<path d="M38.0412 17.2952L42.2638 24.9616L41.9177 25.1519H25.6227L25.5223 25.2419L23.8298 23.3763C23.2484 22.5318 23.3176 21.3481 23.9925 20.5936L27.0799 17.129C27.4467 16.7171 27.9521 16.4853 28.4782 16.4853L36.4837 16.4541C37.0964 16.4541 37.6709 16.7656 38.0412 17.2952Z" fill="#FFA75A"/>
<path d="M42.0044 37.6953L42.0701 37.8165L41.9905 38.7544L40.3742 40.6269L40.3604 38.0622L40.3707 37.8995H41.1737C41.4714 37.8995 41.7517 37.8268 42.0044 37.6953Z" fill="#002140"/>
<path d="M39.5124 37.6568L39.4743 37.726L34.3622 37.7503C33.8638 37.7537 33.3827 37.5564 33.0297 37.2034L28.6722 32.8458C28.333 32.5067 28.1391 32.0532 28.1253 31.5756L28.0249 27.9206L28.0699 27.7061C28.2499 27.7649 28.4368 27.796 28.6306 27.796H30.1016V30.5926C30.1016 30.8384 30.1916 31.0772 30.3612 31.2572L34.0819 35.2998C34.2688 35.504 34.5318 35.6182 34.8087 35.6182H38.4152V35.6494C38.4152 36.4904 38.8617 37.2761 39.5124 37.6568Z" fill="#FFA75A"/>
<path d="M22.7223 14.3633L24.5152 16.0696L24.439 16.1527L24.4009 19.3715L24.2002 19.5792L22.4177 17.8521L22.5458 17.7206L22.5873 14.5052L22.7223 14.3633Z" fill="#F25730"/>
<path d="M21.1822 12.8961L22.7224 14.3636L22.5874 14.5055L22.5458 17.7209L22.4178 17.8524L19.95 15.4608C19.725 15.1943 19.41 15.0454 19.0778 15.0454H12.2144V12.46H20.2961C20.6353 12.46 20.9572 12.6192 21.1822 12.8961Z" fill="#FFA75A"/>
<path d="M14.8206 32.6106C14.8206 33.7251 13.9172 34.625 12.8027 34.625C11.6882 34.625 10.7883 33.7251 10.7883 32.6106C10.7883 31.4961 12.8027 27.8135 12.8027 27.8135C12.8027 27.8135 14.8206 31.4961 14.8206 32.6106Z" fill="#F25730"/>
<path d="M14.8103 42.2605C14.8103 43.3749 13.9069 44.2783 12.7959 44.2783C11.6849 44.2783 10.7781 43.3749 10.7781 42.2605C10.7781 41.146 12.7959 37.4668 12.7959 37.4668C12.7959 37.4668 14.8103 41.1494 14.8103 42.2605Z" fill="#F25730"/>
<path d="M14.696 22.7014C14.696 23.8124 13.7961 24.7158 12.6816 24.7158C11.5671 24.7158 10.6672 23.8124 10.6672 22.7014C10.6672 21.5904 12.6816 17.9043 12.6816 17.9043C12.6816 17.9043 14.696 21.5869 14.696 22.7014Z" fill="#F25730"/>
<path d="M25.5223 25.2419L23.8298 23.3763C23.2484 22.5318 23.3176 21.3481 23.9925 20.5936L27.0799 17.129C27.4467 16.7171 27.9521 16.4853 28.4782 16.4853L36.4837 16.4541C37.0964 16.4541 37.6709 16.7656 38.0412 17.2952L42.2638 24.9616L42.6826 25.723C42.9422 26.0968 43.1291 27.6024 43.1291 28.0731V35.7603C43.1291 36.6152 42.6688 37.3558 42.0042 37.695C41.7516 37.8266 41.4712 37.8993 41.1736 37.8993H40.3706C40.0626 37.8993 39.7718 37.8127 39.5122 37.657C38.8615 37.2762 38.4151 36.4906 38.4151 35.6495V35.6184L38.4081 34.8535C38.4081 34.2858 38.2109 33.957 37.844 33.5555L33.1472 28.4227C32.7803 28.0247 32.2819 27.7962 31.7628 27.7962H28.6304C28.4366 27.7962 28.2497 27.7651 28.0697 27.7062C27.6752 27.5782 27.3221 27.3151 27.0695 26.9482L25.5223 25.2419Z" stroke="#002140" stroke-width="0.65" stroke-linecap="round" stroke-linejoin="round"/>
<path d="M24.2383 19.6141L24.2002 19.5795L22.4178 17.8524L19.95 15.4608C19.725 15.1943 19.41 15.0454 19.0778 15.0454H12.2144V12.46H20.2961C20.6353 12.46 20.9572 12.6192 21.1822 12.8961L22.7224 14.3636L24.5152 16.0699L26.315 17.7832" stroke="#002140" stroke-width="0.65" stroke-linecap="round" stroke-linejoin="round"/>
<path d="M40.3604 38.0621L40.3742 40.6268L41.9905 38.7544L42.0701 37.8164" stroke="#002140" stroke-width="0.65" stroke-linecap="round" stroke-linejoin="round"/>
<path d="M14.696 22.7014C14.696 23.8124 13.7961 24.7158 12.6816 24.7158C11.5671 24.7158 10.6672 23.8124 10.6672 22.7014C10.6672 21.5904 12.6816 17.9043 12.6816 17.9043C12.6816 17.9043 14.696 21.5869 14.696 22.7014Z" stroke="#002140" stroke-width="0.65" stroke-linecap="round" stroke-linejoin="round"/>
<path d="M14.8206 32.6106C14.8206 33.7251 13.9172 34.625 12.8027 34.625C11.6882 34.625 10.7883 33.7251 10.7883 32.6106C10.7883 31.4961 12.8027 27.8135 12.8027 27.8135C12.8027 27.8135 14.8206 31.4961 14.8206 32.6106Z" stroke="#002140" stroke-width="0.65" stroke-linecap="round" stroke-linejoin="round"/>
<path d="M30.1016 27.9209V30.5929C30.1016 30.8386 30.1916 31.0775 30.3611 31.2574L34.0819 35.3C34.2688 35.5042 34.5318 35.6184 34.8087 35.6184H38.2248" stroke="#002140" stroke-width="0.65" stroke-linecap="round" stroke-linejoin="round"/>
<path d="M28.0249 27.9209L28.1253 31.5759C28.1391 32.0535 28.333 32.5069 28.6722 32.8461L33.0297 37.2036C33.3827 37.5567 33.8638 37.754 34.3622 37.7505L39.4743 37.7263" stroke="#002140" stroke-width="0.65" stroke-linecap="round" stroke-linejoin="round"/>
<path d="M34.3448 32.5659C32.3616 30.5481 32.2335 29.9389 32.4204 28.2568" stroke="#002140" stroke-width="0.65" stroke-linecap="round" stroke-linejoin="round"/>
<path d="M24.4011 19.3722L24.4392 16.1533" stroke="#002140" stroke-width="0.65" stroke-linecap="round" stroke-linejoin="round"/>
<path d="M22.5459 17.7213L22.5874 14.5059" stroke="#002140" stroke-width="0.65" stroke-linecap="round" stroke-linejoin="round"/>
<path d="M25.6228 25.1523H41.9178" stroke="#002140" stroke-width="0.65" stroke-linecap="round" stroke-linejoin="round"/>
<path d="M14.8103 42.2605C14.8103 43.3749 13.9069 44.2783 12.7959 44.2783C11.6849 44.2783 10.7781 43.3749 10.7781 42.2605C10.7781 41.146 12.7959 37.4668 12.7959 37.4668C12.7959 37.4668 14.8103 41.1494 14.8103 42.2605Z" stroke="#002140" stroke-width="0.65" stroke-linecap="round" stroke-linejoin="round"/>
</g>
<defs>
<clipPath id="clip0_26_81638">
<rect width="52" height="52" fill="white"/>
</clipPath>
</defs>
</svg>

<svg xmlns="http://www.w3.org/2000/svg" width="52" height="52" fill="none" viewBox="0 0 52 52"><g clip-path="url(#a)"><path fill="#ff7101" d="M0 0h52v52H0z"/><path fill="#ff7101" d="M26 52c14.36 0 26-11.64 26-26S40.36 0 26 0 0 11.64 0 26s11.64 26 26 26"/><path fill="#ff7101" stroke="#002140" stroke-miterlimit="10" stroke-width=".65" d="M26 46.767c11.47 0 20.767-9.298 20.767-20.767S37.469 5.233 26 5.233C14.53 5.233 5.233 14.531 5.233 26c0 11.47 9.298 20.767 20.767 20.767Z"/><path fill="#ffc68c" d="M43.13 28.074v7.687c0 .854-.461 1.595-1.126 1.934a1.8 1.8 0 0 1-.83.205h-.803c-.308 0-.6-.087-.859-.243-.65-.38-1.097-1.166-1.097-2.007v-.031l-.007-.765c0-.568-.197-.897-.564-1.298l-4.697-5.133a1.9 1.9 0 0 0-1.384-.626H28.63q-.29-.001-.56-.09a1.95 1.95 0 0 1-1-.758l-1.547-1.707.1-.09h16.295l.346-.19.419.761c.26.374.446 1.88.446 2.35"/><path fill="#ffa75a" d="m38.041 17.295 4.223 7.667-.346.19H25.623l-.1.09-1.693-1.866c-.582-.844-.512-2.028.163-2.782l3.087-3.465a1.87 1.87 0 0 1 1.398-.644l8.006-.03c.612 0 1.187.31 1.557.84"/><path fill="#002140" d="m42.004 37.695.066.121-.08.938-1.616 1.873-.014-2.565.01-.162h.804c.297 0 .578-.073.83-.205"/><path fill="#ffa75a" d="m39.512 37.657-.038.069-5.112.024a1.87 1.87 0 0 1-1.332-.547l-4.358-4.357a1.87 1.87 0 0 1-.547-1.27l-.1-3.655.045-.215q.27.09.56.09h1.472v2.797c0 .245.09.484.26.664l3.72 4.043c.187.204.45.318.727.318h3.606v.031c0 .841.447 1.627 1.097 2.008"/><path fill="#f25730" d="m22.722 14.363 1.793 1.707-.076.083-.038 3.219-.2.207-1.783-1.727.128-.131.041-3.216z"/><path fill="#ffa75a" d="m21.182 12.896 1.54 1.468-.135.141-.041 3.216-.128.131-2.468-2.391a1.14 1.14 0 0 0-.872-.416h-6.864V12.46h8.082c.34 0 .661.16.886.436"/><path fill="#f25730" d="M14.82 32.61a2.015 2.015 0 0 1-2.017 2.015c-1.115 0-2.015-.9-2.015-2.014 0-1.115 2.015-4.797 2.015-4.797s2.018 3.682 2.018 4.797m-.011 9.649a2.017 2.017 0 0 1-2.014 2.018 2.02 2.02 0 0 1-2.018-2.017c0-1.115 2.018-4.794 2.018-4.794s2.014 3.682 2.014 4.794m-.114-19.56a2.014 2.014 0 1 1-4.029 0c0-1.11 2.015-4.797 2.015-4.797s2.014 3.683 2.014 4.797"/><path stroke="#002140" stroke-linecap="round" stroke-linejoin="round" stroke-width=".65" d="m25.522 25.242-1.692-1.866c-.582-.844-.512-2.028.163-2.782l3.087-3.465a1.87 1.87 0 0 1 1.398-.644l8.006-.03c.612 0 1.187.31 1.557.84l4.223 7.667.419.761c.26.374.446 1.88.446 2.35v7.687c0 .855-.46 1.596-1.125 1.935a1.8 1.8 0 0 1-.83.204h-.803c-.308 0-.6-.086-.859-.242-.65-.38-1.097-1.166-1.097-2.007v-.032l-.007-.765c0-.567-.197-.896-.564-1.297l-4.697-5.133a1.9 1.9 0 0 0-1.384-.627H28.63q-.29 0-.56-.09a1.95 1.95 0 0 1-1-.758zm-1.284-5.628-.038-.035-1.782-1.727-2.468-2.391a1.14 1.14 0 0 0-.872-.416h-6.864V12.46h8.082c.34 0 .661.16.886.436l1.54 1.468 1.793 1.706 1.8 1.713M40.36 38.062l.014 2.565 1.616-1.873.08-.938M14.696 22.701a2.014 2.014 0 1 1-4.029 0c0-1.11 2.015-4.797 2.015-4.797s2.014 3.683 2.014 4.797m.124 9.909a2.015 2.015 0 0 1-2.017 2.015c-1.115 0-2.015-.9-2.015-2.014 0-1.115 2.015-4.797 2.015-4.797s2.018 3.682 2.018 4.797"/><path stroke="#002140" stroke-linecap="round" stroke-linejoin="round" stroke-width=".65" d="M30.102 27.92v2.673c0 .246.09.485.26.664l3.72 4.043c.187.204.45.318.727.318h3.416"/><path stroke="#002140" stroke-linecap="round" stroke-linejoin="round" stroke-width=".65" d="m28.025 27.92.1 3.656c.014.477.208.93.547 1.27l4.358 4.358c.353.353.834.55 1.332.547l5.112-.025m-5.129-5.16c-1.983-2.018-2.111-2.627-1.925-4.31m-8.019-8.884.038-3.219m-1.893 1.568.041-3.215m3.036 10.646h16.295M14.81 42.26a2.017 2.017 0 0 1-2.014 2.018 2.02 2.02 0 0 1-2.018-2.017c0-1.115 2.018-4.794 2.018-4.794s2.014 3.682 2.014 4.794"/></g><defs><clipPath id="a"><path fill="#fff" d="M0 0h52v52H0z"/></clipPath></defs></svg>
